symbols/web/battery_4_bar/materialsymbolsoutlined/battery_4_bar_wght100_20px.svg

<svg xmlns="http://www.w3.org/2000/svg" height="20" width="20"><path d="M7.458 17.042q-.27 0-.468-.198t-.198-.469V4.729q0-.271.198-.469.198-.198.468-.198h1.209V2.979h2.666v1.083h1.209q.27 0 .468.198t.198.469v11.646q0 .271-.198.469-.198.198-.468.198Zm0-7.334h5.084v-5H7.458Z"/></svg>

<svg xmlns="http://www.w3.org/2000/svg" height="20" width="20"><path d="M7.458 17.042Q7.188 17.042 6.99 16.844Q6.792 16.646 6.792 16.375V4.729Q6.792 4.458 6.99 4.26Q7.188 4.062 7.458 4.062H8.667V2.979H11.333V4.062H12.542Q12.812 4.062 13.01 4.26Q13.208 4.458 13.208 4.729V16.375Q13.208 16.646 13.01 16.844Q12.812 17.042 12.542 17.042ZM7.458 9.708H12.542V4.708H7.458Z"/></svg>
